X:280
T:Steirer (78.)
C:traditionell
A:Salzkammergut
S:MIDI erhalten von Christian Amon. Nach einer kopie im besitz von Johann Stoeckl eines manuscriptes. Stoeckl(zitiert von Amon): "diese sammlung wurde 1935 im hause der familie Hohenlohe-Schillingfuerst gefunden. Sie wurde von einem der beiden brueder Steinegger 1866 verfasst. Die originale sind im Ausseer Kammerhofmuseum".
M:3/4
L:1/8
K:G
V:1
d ed |\
g2 Bd ed | f2 cd ed | ed ed cF | G2 Bd ed |\
g2 Bd ed | f2 cd ed | ed ed cF | G4 z |*
V:2
B cB |\
d2 GB cB | d2 AB cB | cB cB AD | B2 GB cB |\
d2 GB cB | d2 AB cB | cB cB Ad | B4 z|*
